X: 9051
T: For Better or For Worse (with piano acc.)
C: BB
R: reel
Q: 1/8=350
M: 4/4
L: 1/8
V: 1 program 1 110 %fiddle
V: 2 volume=70 clef=bass m=D program 1 00
K: D
[V:1] D|"D"FAdA "Bm"B2 Bc|"D"dBAF "G"GFED|"D"FAdA "Bm"B2 Bc|"D"dfaf "G"gBdB |
[V:2] z|D,2[D2A2F2]B,,2[B2D2F2]|D,2[D2A2F2]G,,2[G2D2B2]|D,2[D2A2F2]B,,2[B2D2F2]|\
D,2[D2A2F2]G,,2[G2D2B2]|
%
[V:1] "D"FAdA "Bm"Bcde|"D"faba "A7"gece|"D"fd (3ded "F#m"cAAc|"G"dB"A"AG "D"FD D :|
[V:2] D,2[D2A2F2]B,,2[B2D2F2]|D,2[D2A2F2]A,,2[G2^C2E2]|D,2[D2A2F2]F,2[F2C2A2]|\
G,,2[A,,2E2C2]D,2[AFD]:|
%
[V:1] A|"A"(3cBA eA (3cBA eA|"D"fddc dAFA|"A"(3cBA eA (3cBA eA|"D"faaf a3 e |
[V:2] z|A,,2[A2E2C2]E,2[A2E2C2]|D,2[D2A2F2]F,,2[D2F2A2]|A,,2[A2E2C2]E,2[A2E2C2]|\
D,2[D2A2F2]F,,2[D2F2A2]|
%
[V:1] "A"cAeA cAeA|"D"fddc dAFD|"G"GB (3BAB "A"Acec|"G"dB"A"AG "D"FD D :|
[V:2] A,,2[A2E2C2]E,2[A2E2C2]|D,2[D2A2F2]A,,2[D2F2A2]|G,,2[G2D2B2]A,,2[A2E2C2]|\
G,2[A,,2E2C2]D,2[AFD] :|
%%%%%%%tune repeat
[V:1] D|"D"FAdA "Bm"B2 Bc|"D"dBAF "G"GFED|"D"FAdA "Bm"B2 Bc|"D"dfaf "G"gBdB |
[V:2] z|D,2[D2A2F2]B,,2[B2D2F2]|D,2[D2A2F2]G,,2[G2D2B2]|D,2[D2A2F2]B,,2[B2D2F2]|\
D,2[D2A2F2]G,,2[G2D2B2]|
%
[V:1] "D"FAdA "Bm"Bcde|"D"faba "A7"gece|"D"fd (3ded "F#m"cAAc|"G"dB"A"AG "D"FD D :|
[V:2] D,2[D2A2F2]B,,2[B2D2F2]|D,2[D2A2F2]A,,2[G2^C2E2]|D,2[D2A2F2]F,2[F2C2A2]|\
G,,2[A,,2E2C2]D,2[AFD]:|
%
[V:1] A|"A"(3cBA eA (3cBA eA|"D"fddc dAFA|"A"(3cBA eA (3cBA eA|"D"faaf a3 e |
[V:2] z|A,,2[A2E2C2]E,2[A2E2C2]|D,2[D2A2F2]F,,2[D2F2A2]|A,,2[A2E2C2]E,2[A2E2C2]|\
D,2[D2A2F2]F,,2[D2F2A2]|
%
[V:1] "A"cAeA cAeA|"D"fddc dAFD|"G"GB (3BAB "A"Acec|1 "G"dB"A"AG "D"FD D :|2\
"G"dB"A"AG "D"FD D2-|D4 z4||
[V:2] A,,2[A2E2C2]E,2[A2E2C2]|D,2[D2A2F2]A,,2[D2F2A2]|G,,2[G2D2B2]A,,2[A2E2C2]|1\
G,2[A,,2E2C2]D,2[AFD] :|2 G,2[A,,2E2C2][D,4-A,4-F4-]|[D,4A,4F4] z4||

%%%%%%%%%%%%%%%%%%%%%%%%%%%%%%%%%%%%%%%%%%%

